X:1
T:Light of the Seven
T:Light of the Seven
T:Game of Thrones Season 6 
T:Ramin Djawadi
C:Ramin Djawadi
%%score { ( 1 3 4 ) | 2 }
L:1/8
Q:1/4=120
M:4/4
K:Eb
V:1 treble nm="Piano" snm="Pno."
V:3 treble 
V:4 treble 
V:2 bass 
V:1
 CGeG eGCG- | GCAC A C2 C | CGeG eGCG | !fermata!C8 | CGeG eGCG- | GCAC A C2 C | CGeG eGCG | %7
 !fermata!C8 | CGeG eGCG | DG=BG =B4 | B,FAF AFB,F | CGcG !fermata!c4 | [Gc]8 | [Ac]2 B2 A2 G2 | %14
 [CGc]8 | !fermata![DGd]8 | [Gc]8 | [Ec]2 [E=B]2 [E=A]2 G2 | [EA]4 [EG]4 | !fermata![CFAc]8 | %20
 [Gc]8 | [GB]8 | [DG]4 [Gd]4 | !fermata![EAc]8 | [CAc]8 | c2 B2 A2 G2 | [=B,F=B]8 | %27
 !fermata![CEc]8 | [cgc']4 [cc']4 | [cac']2 [Bb]2 [Aa]2 [Gdg]2 | [cegc']4 [cegc']4- | %31
 !fermata![cegc']8 | !arpeggio![cc']4 [cc']4 | [ec']2 [e=b]2 [e=a]2 g2 | [eac']4 [gbc']4 | %35
 !fermata![fac']8 | [cgc']4 [cc']4 | c'2 b2 a2 g2 | c'2 b2 b4 | !fermata![eac']8 | %40
 [cac']4 [cac']4 | [cgc']2 [=B=b]2 [=Ac=a]2 [Gcdg]2- | !fermata![Gcdg]8 | [ge']8 | [ac']8 | %45
 [ge']8- | !fermata![ge']8 | [ge']8 | [fa]8 | [ge']8- | !fermata![ge']8 | [ge']8 | =b8 | [fa]8 | %54
 [cg]8- | !fermata![cg]8 | [ge']8 | [g=b]8 | [fac']8 | [gc']8- | !fermata![gc']8 | z GeG e G2 G- | %62
 GCAC A C2 A- | AGeG e G2 G- | !fermata!G8 | z GeG e G2 G | GCAC A C2 A | AGeG e G2 G- | %68
 !fermata!G8 | z GeG e G2 G- | GGeG e4 | z CAC A C2 C- | CCGC- CC !fermata!F2 | z GeG e G2 G- | %74
 GGeG e4 | z EcE- EB,GB,- | B,CAC !fermata!A4 | CGeG eGCG | B,GeG e4 | z DBD B D2 D- | %80
 DEcE !fermata!c4 | z CAC A C2 C | CCGC G4 | !arpeggio![CF]8- | [CF]8 | [cc']4 [cc']4 | %86
 [cc']2 [Bb]2 [Aa]2 [Gg]2 | [cc']8 | !fermata![cc']8 | [cc']4 [cc']4 | %90
 [cc']2 [=B=b]2 [=A=a]2 [Gg]2 | [cc']4 [cc']4 | !arpeggio!!fermata![cc']8 | [cc']4 [cc']4 | %94
 [cc']2 [Bb]2 [Aa]2 [Gg]2 | [cc']4 [cc']4 | [cc']4- !fermata![cc']7/2 [dd']/ | [cc']4 [cc']4 | %98
 [cc']2 [=B=b]2 [=A=a]2 [Gg]2 | [cc']4 [cc']4 | !arpeggio!!fermata![cc']8 | [ge']8 | [ac']8 | %103
 [ge']8- | !fermata![ge']8 | [ge']8 | [fa]8 | [cg]8- | !fermata![cg]8 |] %109
V:2
 C,8 | F,,6 F,2 | C,8- | C,8 | [C,,C,]8 | [F,,F,]6 F,2 | C,8- | C,8 | [C,,C,]8 | G,,8 | B,,8 | %11
 [C,,C,]8 | [C,,C,] G,2 G,- G,G,C,G, | [F,,F,]C,A,C, A,4 | [E,,E,]C,G,C, G,C,[E,,E,]C, | %15
 [D,,D,]=B,,F,B,, F,4 | [C,,C,] G,2 G,- G,G,C,G, | G,, G,2 G,- G,4 | A,,E,CE, E,,B,,G,B,, | %19
 F,,C,A,C, A,4 | [C,,C,] G,2 G,- G,G,C,G, | [B,,,B,,] G,2 G,- G,4 | G,,D,B,D, B,D,G,,D, | %23
 A,,E,CE, C4 | F,,C,A,C, A,C,F,,C, | E,,C,G,C, G,4 | D,,=B,,F,B,, F,4 | [C,,,C,,]8 | %28
 [C,,C,]G,EG, EG,C,G, | F,,C,A,C, A,C,F,,C, | C,,G,EG, EG,C,G, | C,8 | C,G,EG, EG,C,G, | %33
 G,,G,EG, E4 | A,,E,CE, E,,B,,G,B,, | F,,C,A,C, A,4 | C,G,EG, EG,C,G, | B,,G,DG, DG, B,,2 | %38
 G,,G,DG, DG, D2 | A,,E,CE, C4 | F,,C,A,C, A,C,F,,C, | E,,C,G,C, [D,,D,]4- | [D,,D,]8 | B,,8 | %44
 C,8 | E,8- | E,8 | E,8 | A,,8 | E,8- | E,8 | E,8 | F,8 | D,8 | B,,8- | B,,8 | z8 | F,8 | D,8 | %59
 E,8- | E,8 | C6 C2 | F,6 F,2 | C6 C2 | C8 | C6 C2 | F,6 F,2 | C6 C2 | C8 | [C,C]6 C2 | [G,,G,]8 | %71
 [F,,F,]6 F,2 | E,4 D,4 | [C,C]6 C2 | [G,,G,]8 | [A,,A,]4 [E,,E,]4 | [F,,F,]8 | [C,,C,]8 | %78
 [C,,C,]8 | [G,,G,]6 G,2 | [A,,A,]8 | [F,,F,]6 F,2 | [E,,E,]8 | !arpeggio![D,,D,]8- | [D,,D,]8 | %85
 [C,,C,]8- | [C,,C,]2 B,2 A,2 G,2 | [F,,F,]8 | [E,,E,]8 | [C,,C,]8 | [G,,G,]8 | [E,,E,]8 | %92
 [D,,D,]8 | [C,,C,]8 | [G,,G,]8 | [F,,F,]8 | [E,,E,]4 [D,,D,]4 | [A,,,A,,]8 | [F,,,F,,]8 | %99
 [G,,,G,,]8 | [A,,,A,,]8 | [E,,-E,]8 | [E,,-C,]8 | [E,,E,]8- | [E,,E,]8 | [E,,-E,]8 | [E,,-A,,]8 | %107
 [E,,B,,]8- | [E,,B,,]8 |] %109
V:3
 x8 | x8 | x8 | x8 | x8 | x8 | x8 | x8 | x8 | x8 | x8 | x8 | z2 E2 E4 | x8 | x8 | x8 | z2 E2 E4 | %17
 x8 | c8- | x8 | z2 E2 E4 | x8 | x8 | x8 | x8 | [CG]8 | x8 | x8 | x8 | x8 | x8 | x8 | x8 | x8 | %34
 x8 | x8 | x8 | [dg]8 | [dg]8 | x8 | x8 | x8 | x8 | x8 | x8 | x8 | x8 | x8 | x8 | x8 | x8 | x8 | %52
 x8 | x8 | x8 | x8 | x8 | x8 | x8 | x8 | x8 | x8 | x8 | x8 | x8 | x8 | x8 | x8 | x8 | x8 | x8 | %71
 x8 | x8 | x8 | x8 | x8 | x8 | x8 | x8 | x8 | x8 | x8 | x8 | x8 | x8 | x8 | x8 | x8 | x8 | x8 | %90
 x8 | x8 | x8 | x8 | x8 | x8 | x8 | x8 | x8 | x8 | x8 | x8 | x8 | x8 | x8 | x8 | x8 | x8 | x8 |] %109
V:4
 x8 | x8 | x8 | x8 | x8 | x8 | x8 | x8 | x8 | x8 | x8 | x8 | x8 | x8 | x8 | x8 | x8 | x8 | x8 | %19
 x8 | x8 | z2 E2 E4 | x8 | x8 | x8 | x8 | x8 | x8 | x8 | x8 | x8 | x8 | x8 | x8 | x8 | x8 | x8 | %37
 x8 | x8 | x8 | x8 | x8 | x8 | x8 | x8 | x8 | x8 | x8 | x8 | x8 | x8 | x8 | x8 | x8 | x8 | x8 | %56
 x8 | x8 | x8 | x8 | x8 | x8 | x8 | x8 | x8 | x8 | x8 | x8 | x8 | x8 | x8 | x8 | x8 | x8 | x8 | %75
 x8 | x8 | x8 | x8 | x8 | x8 | x8 | x8 | x8 | x8 | x8 | x8 | x8 | x8 | x8 | x8 | x8 | x8 | x8 | %94
 x8 | x8 | x8 | x8 | x8 | x8 | x8 | x8 | x8 | x8 | x8 | x8 | x8 | x8 | x8 |] %109

